wp-carousel-free/admin/img/pagination/numbers.svg

<svg width="80" height="32" viewBox="0 0 80 32" fill="none" xmlns="http://www.w3.org/2000/svg">
<g clip-path="url(#clip0_1993_21095)">
<path d="M40 26C45.5228 26 50 21.5228 50 16C50 10.4772 45.5228 6 40 6C34.4772 6 30 10.4772 30 16C30 21.5228 34.4772 26 40 26Z" fill="#C1C4C6"/>
<path d="M36.663 12.979V18.666H35.347V14.463L34.05 14.842V13.842L36.542 12.979H36.663ZM40.808 12.979L38.863 19.155H37.926L39.871 12.979H40.808ZM44.167 12.897H44.378V13.932H44.308C44.055 13.932 43.818 13.967 43.597 14.038C43.3847 14.1046 43.1881 14.2135 43.019 14.358C42.855 14.499 42.726 14.677 42.632 14.893C42.5359 15.1353 42.4893 15.3944 42.495 15.655V16.651C42.495 16.833 42.511 16.992 42.542 17.128C42.573 17.264 42.62 17.375 42.683 17.464C42.7413 17.549 42.8205 17.6175 42.913 17.663C43.007 17.707 43.115 17.729 43.237 17.729C43.339 17.729 43.432 17.706 43.518 17.659C43.6064 17.6103 43.6826 17.5423 43.741 17.46C43.8082 17.3695 43.8583 17.2675 43.889 17.159C43.923 17.045 43.94 16.92 43.94 16.784C43.94 16.638 43.922 16.507 43.885 16.389C43.848 16.271 43.796 16.173 43.729 16.092C43.662 16.011 43.584 15.946 43.491 15.904C43.397 15.8593 43.294 15.8367 43.19 15.838C43.04 15.8334 42.8919 15.8726 42.764 15.951C42.6531 16.0196 42.5627 16.1166 42.502 16.232C42.4463 16.3396 42.4169 16.4589 42.416 16.58L42.1 16.26C42.095 16.104 42.125 15.942 42.19 15.776C42.2582 15.6043 42.3575 15.4466 42.483 15.311C42.62 15.1627 42.7861 15.0443 42.971 14.963C43.166 14.875 43.393 14.83 43.651 14.83C43.909 14.83 44.141 14.88 44.339 14.979C44.537 15.0757 44.7097 15.2175 44.843 15.393C44.9854 15.5785 45.0916 15.7892 45.156 16.014C45.226 16.251 45.262 16.508 45.262 16.784C45.262 17.06 45.212 17.322 45.114 17.561C45.0205 17.7935 44.8811 18.0047 44.704 18.182C44.527 18.359 44.317 18.497 44.075 18.596C43.833 18.695 43.566 18.745 43.274 18.745C42.9895 18.7479 42.7071 18.6963 42.442 18.593C42.1921 18.4907 41.966 18.3378 41.778 18.144C41.591 17.946 41.443 17.705 41.337 17.421C41.231 17.137 41.181 16.816 41.181 16.456V15.976C41.181 15.489 41.26 15.055 41.419 14.675C41.578 14.295 41.799 13.973 42.075 13.71C42.3505 13.4466 42.6759 13.2409 43.032 13.105C43.3949 12.9662 43.7804 12.8961 44.169 12.898L44.167 12.897Z" fill="#58707F"/>
<path d="M78 0.5H2C1.17157 0.5 0.5 1.17157 0.5 2V30C0.5 30.8284 1.17157 31.5 2 31.5H78C78.8284 31.5 79.5 30.8284 79.5 30V2C79.5 1.17157 78.8284 0.5 78 0.5Z" stroke="#58707F"/>
</g>
<defs>
<clipPath id="clip0_1993_21095">
<rect width="80" height="32" fill="white"/>
</clipPath>
</defs>
</svg>

<svg xmlns="http://www.w3.org/2000/svg" width="80" height="32" fill="none" xmlns:v="https://vecta.io/nano"><circle cx="40" cy="16" r="10" fill="#d9e3e8"/><path d="M36.663 12.979v5.687h-1.316v-4.203l-1.297.379v-1l2.492-.863h.121zm4.145 0l-1.945 6.176h-.937l1.945-6.176h.938zm3.359-.082h.211v1.035h-.07c-.253 0-.49.035-.711.106a1.65 1.65 0 0 0-.578.32c-.164.141-.293.319-.387.535a1.95 1.95 0 0 0-.137.762v.996c0 .182.016.341.047.477s.078.247.141.336a.6.6 0 0 0 .23.199c.094.044.202.066.324.066.102 0 .195-.023.281-.07a.67.67 0 0 0 .223-.199.93.93 0 0 0 .148-.301c.034-.114.051-.239.051-.375 0-.146-.018-.277-.055-.395s-.089-.216-.156-.297-.145-.146-.238-.188a.68.68 0 0 0-.301-.066.77.77 0 0 0-.426.113.73.73 0 0 0-.262.281.77.77 0 0 0-.086.348l-.316-.32c-.005-.156.025-.318.09-.484a1.5 1.5 0 0 1 .293-.465 1.47 1.47 0 0 1 .488-.348c.195-.088.422-.133.68-.133s.49.05.688.149a1.41 1.41 0 0 1 .504.414 1.86 1.86 0 0 1 .313.621c.07.237.106.494.106.77s-.05.538-.148.777a1.86 1.86 0 0 1-.41.621c-.177.177-.387.315-.629.414s-.509.149-.801.149a2.23 2.23 0 0 1-.832-.152 1.96 1.96 0 0 1-.664-.449c-.187-.198-.335-.439-.441-.723s-.156-.605-.156-.965v-.48c0-.487.079-.921.238-1.301s.38-.702.656-.965a2.86 2.86 0 0 1 .957-.605 3.14 3.14 0 0 1 1.137-.207z" fill="#8796a1"/><rect x=".5" y=".5" width="79" height="31" rx="1.5" stroke="#ccc"/></svg>
